X: 39978
T: Three Days To Go
R: reel
M: 4/4
K: Amixolydian
|:BA AB Bd da|gd ag fd dA|Bg gb ag fd|ed cd de ag|
fz dc de fa|gd ag fd dA|GA B/c/d g4|gf eg fe dB:|
|:FG Ad fe ed|Ac eA ce AG|FG Ad fz ab|gf ed de ea|
fd dc dA FD|BA GF G2 de|fd fa gf ed|cd ec d4:|
|:BA AB Bd da|g2 ag fd dA|Bg gb ag fd|ed cd de ag|
fz dc de fa|gd ag fd dA|ba gf gf ed|ed cB A4:|
|:FG Ad fe ed|eA AG AB AG|FG Ad fz ab|gf ed de e2|
fd dc dA FD|BA GF G2 de|fd fa gf ed|cd ec d4:|

